src/assets/images/logo.svg

<svg width="91" height="38" viewBox="0 0 91 38" fill="none" xmlns="http://www.w3.org/2000/svg">
<path d="M52.3472 18.3166V18.7754C52.3472 18.9913 52.2941 19.2072 52.2144 19.4231C52.1347 19.612 52.0019 19.801 51.8691 19.9629C51.7097 20.1248 51.5503 20.2328 51.3378 20.3407C51.1518 20.4217 50.9127 20.4757 50.7002 20.4757C50.5142 20.4757 50.3017 20.4487 50.1157 20.3947C49.9032 20.3407 49.7438 20.2328 49.5579 20.0978C49.3985 19.9629 49.2657 19.774 49.1594 19.5581C49.0531 19.3422 49 19.0723 49 18.7214V14.7002C49 14.4573 49.0531 14.2414 49.1328 14.0255C49.2125 13.8096 49.3188 13.6477 49.4782 13.4858C49.6376 13.3239 49.797 13.2159 50.0095 13.1349C50.222 13.054 50.4345 13 50.7002 13C51.1784 13 51.5768 13.1619 51.8956 13.4858C52.055 13.6477 52.1613 13.8366 52.241 14.0525C52.3207 14.2684 52.3738 14.5113 52.3738 14.7542V15.159H51.3112V14.8082C51.3112 14.5923 51.2581 14.4304 51.1518 14.2684C51.0455 14.1065 50.8861 14.0525 50.6736 14.0525C50.408 14.0525 50.2486 14.1335 50.1689 14.2954C50.0892 14.4573 50.0361 14.6733 50.0361 14.9161V18.6405C50.0361 18.8564 50.0892 19.0183 50.1689 19.1802C50.2486 19.3152 50.4345 19.3961 50.6471 19.3961C50.7268 19.3961 50.7799 19.3961 50.8596 19.3692C50.9393 19.3422 51.019 19.3152 51.0721 19.2612C51.1252 19.2072 51.1784 19.1263 51.2315 19.0453C51.2846 18.9373 51.2846 18.8294 51.2846 18.6945V18.3436H52.3472V18.3166Z" fill="white"/>
<path d="M55.1367 14.8082C55.1367 14.5113 55.1898 14.2414 55.2961 14.0255C55.4024 13.8096 55.5352 13.6207 55.6946 13.4588C55.854 13.3239 56.0399 13.2159 56.2525 13.1349C56.465 13.054 56.6775 13.027 56.8635 13.027C57.076 13.027 57.2885 13.054 57.4745 13.1349C57.687 13.2159 57.873 13.3239 58.0324 13.4588C58.1917 13.6207 58.3246 13.8096 58.4308 14.0255C58.5371 14.2414 58.5902 14.5113 58.5902 14.8082V18.6675C58.5902 18.9643 58.5371 19.2342 58.4308 19.4501C58.3246 19.666 58.1917 19.8549 58.0324 19.9899C57.873 20.1518 57.687 20.2598 57.4745 20.3407C57.262 20.4217 57.0494 20.4487 56.8635 20.4487C56.651 20.4487 56.4384 20.4217 56.2525 20.3407C56.0399 20.2598 55.854 20.1518 55.6946 19.9899C55.5352 19.8549 55.4024 19.666 55.2961 19.4501C55.1898 19.2342 55.1367 18.9643 55.1367 18.6675V14.8082ZM56.1728 18.6675C56.1728 18.9104 56.2525 19.0993 56.3853 19.2342C56.5181 19.3422 56.6775 19.4231 56.8635 19.4231C57.0494 19.4231 57.2088 19.3692 57.3417 19.2342C57.4745 19.1263 57.5542 18.9374 57.5542 18.6675V14.8082C57.5542 14.5653 57.4745 14.3764 57.3417 14.2414C57.2088 14.1335 57.0494 14.0525 56.8635 14.0525C56.6775 14.0525 56.5181 14.1065 56.3853 14.2414C56.2525 14.3494 56.1728 14.5383 56.1728 14.8082V18.6675Z" fill="white"/>
<path d="M61.5388 20.3947V13.081H62.5217L63.85 16.9402H63.8766L65.1783 13.081H66.1878V20.3947H65.1517V15.9417H65.1252L64.1157 19.0723H63.6109L62.6014 15.9417H62.5749V20.3947H61.5388Z" fill="white"/>
<path d="M69.1897 20.3947V13.081H70.7305C71.0227 13.081 71.2618 13.108 71.4743 13.1889C71.6869 13.2699 71.8728 13.4048 72.0588 13.5937C72.2447 13.7827 72.351 13.9986 72.4307 14.2684C72.5104 14.5383 72.5369 14.8622 72.5369 15.321C72.5369 15.6448 72.5104 15.9147 72.4838 16.1576C72.4572 16.3735 72.3776 16.5894 72.2447 16.8053C72.1119 17.0482 71.9259 17.2371 71.6869 17.372C71.4478 17.507 71.129 17.561 70.7571 17.561H70.2258V20.4217H69.1897V20.3947ZM70.1992 14.0795V16.5624H70.7039C70.9165 16.5624 71.0758 16.5354 71.1821 16.4814C71.2884 16.4275 71.3681 16.3465 71.4478 16.2116C71.5009 16.1036 71.5275 15.9957 71.554 15.8337C71.554 15.6718 71.5806 15.5099 71.5806 15.321C71.5806 15.159 71.5806 14.9971 71.5806 14.8352C71.5806 14.6733 71.554 14.5383 71.5009 14.4304C71.4478 14.3224 71.3681 14.2145 71.2618 14.1605C71.1555 14.1065 70.9961 14.0795 70.7836 14.0795H70.1992Z" fill="white"/>
<path d="M74.4763 20.3947L76.0702 13.081H76.9203L78.5143 20.3947H77.4782L77.186 18.8294H75.778L75.4858 20.3947H74.4763ZM77.0266 17.8308L76.5219 15.186H76.4953L75.9905 17.8308H77.0266Z" fill="white"/>
<path d="M81.0378 20.3947V13.081H82.0208L83.5881 17.48H83.6147V13.081H84.6507V20.3947H83.6678L82.1005 15.9957H82.0739V20.3947H81.0378Z" fill="white"/>
<path d="M88.5559 20.3947V17.2911L87.1479 13.081H88.2371L89.0607 15.9957H89.0872L89.9108 13.081H90.9999L89.592 17.2911V20.3947H88.5559Z" fill="white"/>
<path d="M18.6756 27.3658C18.0114 27.3118 17.3473 27.3118 16.6832 27.3118C13.7344 27.3118 10.6794 27.7166 7.6509 28.4723C6.61485 28.7422 5.60536 29.039 4.62244 29.3629V7.50265C6.26949 6.72 8.04938 6.0453 9.90896 5.58651C12.1936 4.99277 14.4782 4.6959 16.6566 4.6959C17.3473 4.6959 18.0114 4.72289 18.649 4.77687V4.85783C19.3928 5.07374 20.1632 5.26265 20.9602 5.39759C21.704 5.53253 22.4744 5.61349 23.2714 5.66747V0.890603C21.3321 0.296867 19.1006 0 16.6832 0C14.186 0 11.5029 0.323855 8.79321 1.02554C5.4991 1.86217 2.52376 3.15759 0.0266113 4.72289V36.7036C2.52376 35.1383 5.52566 33.8699 8.81978 33.0063C11.5295 32.3046 14.2126 31.9807 16.7097 31.9807C17.4004 31.9807 18.0646 32.0077 18.7021 32.0617V27.3658H18.6756Z" fill="white"/>
<path d="M33.2069 4.72289C30.4972 5.42458 27.8141 5.74843 25.3169 5.74843C24.6262 5.74843 23.9621 5.72145 23.3245 5.66747C22.5276 5.61349 21.7572 5.50554 21.0133 5.39759C20.2164 5.26265 19.446 5.07374 18.7021 4.85783V27.3388V32.0617V36.8655C20.668 37.4323 22.9261 37.7561 25.3435 37.7561C27.8407 37.7561 30.5238 37.4323 33.2335 36.7306C36.5276 35.894 39.5029 34.5986 42.0266 33.0333V1.05253C39.4763 2.59084 36.501 3.88627 33.2069 4.72289ZM37.3511 30.2535C35.704 31.0361 33.9242 31.7108 32.0646 32.1696C29.7799 32.7634 27.4953 33.0602 25.3169 33.0602C24.6262 33.0602 23.9621 33.0333 23.3245 32.9793V32.8983V10.3904C23.9887 10.4443 24.6528 10.4443 25.3169 10.4443C28.2657 10.4443 31.3207 10.0395 34.3492 9.28386C35.3853 9.01398 36.3947 8.71711 37.3777 8.39325V30.2535H37.3511Z" fill="white"/>
<path d="M49.5047 23.8761V22.4728H49V22.1759H50.3283V22.4728H49.8235V23.8761H49.5047Z" fill="white"/>
<path d="M54.2069 23.8761H53.835L53.7021 23.4983H53.038L52.9052 23.8761H52.5598L53.1974 22.1759H53.5427L54.2069 23.8761ZM53.5693 23.2014L53.3302 22.5807L53.0911 23.2014H53.5693Z" fill="white"/>
<path d="M57.3149 23.2554V22.9855H58.0322V23.6602C57.8462 23.8222 57.6072 23.9301 57.3149 23.9301C57.0227 23.9301 56.8368 23.8492 56.6774 23.6872C56.5445 23.5253 56.4648 23.3094 56.4648 23.0395C56.4648 22.7427 56.5445 22.5268 56.7039 22.3918C56.8633 22.2569 57.0493 22.1759 57.2884 22.1759C57.6869 22.1759 57.9259 22.3378 58.0056 22.6617L57.6603 22.7157C57.6072 22.5268 57.4743 22.4458 57.2884 22.4458C56.9696 22.4458 56.8102 22.6347 56.8102 23.0125C56.8102 23.2015 56.8633 23.3364 56.943 23.4443C57.0227 23.5523 57.1555 23.6063 57.2884 23.6063C57.4212 23.6063 57.554 23.5523 57.6869 23.4713V23.2554H57.3149Z" fill="white"/>
<path d="M62.5217 23.8761V22.1759H62.8671V23.5793H63.7172V23.8761H62.5217Z" fill="white"/>
<path d="M66.0815 23.8761V22.1759H66.4269V23.8761H66.0815Z" fill="white"/>
<path d="M68.8708 23.8761V22.1759H69.1896L69.8803 23.3094V22.1759H70.1991V23.8761H69.8538L69.1896 22.7696V23.8761H68.8708Z" fill="white"/>
<path d="M72.7229 23.8761V22.1759H73.9715V22.4728H73.0683V22.8506H73.9183V23.1475H73.0683V23.6063H73.9715V23.9031H72.7229V23.8761Z" fill="white"/>
<path d="M78.3547 23.8761V22.1759H78.7001V22.8506H79.3642V22.1759H79.7096V23.8761H79.3642V23.1475H78.7001V23.8761H78.3547Z" fill="white"/>
<path d="M82.1802 23.8761V22.1759H83.4288V22.4728H82.5255V22.8506H83.3756V23.1475H82.5255V23.6063H83.4553V23.9031H82.1802V23.8761Z" fill="white"/>
<path d="M85.8994 23.8761V22.1759H86.6167C86.8292 22.1759 86.9886 22.2029 87.1214 22.2839C87.2277 22.3378 87.2808 22.4728 87.2808 22.6617C87.2808 22.9316 87.1214 23.0935 86.8292 23.1205C86.9355 23.1745 87.0683 23.3094 87.2011 23.5253L87.4136 23.8492H86.9886L86.6167 23.3094C86.5901 23.2554 86.537 23.2015 86.4839 23.1745C86.4307 23.1475 86.3776 23.1475 86.2713 23.1475H86.1916V23.8492H85.8994V23.8761ZM86.2448 22.8776H86.4839C86.6433 22.8776 86.7761 22.8506 86.8292 22.8236C86.8823 22.7966 86.9089 22.7427 86.9089 22.6347C86.9089 22.5537 86.8823 22.4998 86.8292 22.4728C86.7761 22.4458 86.6698 22.4188 86.4839 22.4188H86.2182V22.8776H86.2448Z" fill="white"/>
<path d="M89.7249 23.8761V22.1759H90.9734V22.4728H90.0702V22.8506H90.9203V23.1475H90.0702V23.6063H91V23.9031H89.7249V23.8761Z" fill="black"/>
</svg>

<?xml version="1.0" encoding="UTF-8"?>
<svg id="Layer_2" data-name="Layer 2" xmlns="http://www.w3.org/2000/svg" viewBox="0 0 90.97 37.76">
  <defs>
    <style>
      .cls-1 {
        fill: #061e5c;
      }

      .cls-2 {
        fill: #2979ff;
      }
    </style>
  </defs>
  <g id="Layer_1-2" data-name="Layer 1">
    <g>
      <path class="cls-2" d="M52.32,18.32v.46c0,.22-.05,.43-.13,.65-.08,.19-.21,.38-.35,.54-.16,.16-.32,.27-.53,.38-.19,.08-.43,.14-.64,.14-.19,0-.4-.03-.58-.08-.21-.05-.37-.16-.56-.3-.16-.13-.29-.32-.4-.54s-.16-.49-.16-.84v-4.02c0-.24,.05-.46,.13-.67,.08-.22,.19-.38,.35-.54,.16-.16,.32-.27,.53-.35,.21-.08,.43-.13,.69-.13,.48,0,.88,.16,1.2,.49,.16,.16,.27,.35,.35,.57,.08,.22,.13,.46,.13,.7v.4h-1.06v-.35c0-.22-.05-.38-.16-.54-.11-.16-.27-.22-.48-.22-.27,0-.42,.08-.5,.24-.08,.16-.13,.38-.13,.62v3.72c0,.22,.05,.38,.13,.54,.08,.14,.27,.22,.48,.22,.08,0,.13,0,.21-.03,.08-.03,.16-.05,.21-.11,.05-.05,.11-.13,.16-.22,.05-.11,.05-.22,.05-.35v-.35h1.06v-.03Z"/>
      <path class="cls-2" d="M55.11,14.81c0-.3,.05-.57,.16-.78,.11-.22,.24-.4,.4-.57,.16-.13,.35-.24,.56-.32,.21-.08,.42-.11,.61-.11,.21,0,.42,.03,.61,.11,.21,.08,.4,.19,.56,.32,.16,.16,.29,.35,.4,.57,.11,.22,.16,.49,.16,.78v3.86c0,.3-.05,.57-.16,.78-.11,.22-.24,.4-.4,.54-.16,.16-.35,.27-.56,.35-.21,.08-.43,.11-.61,.11-.21,0-.43-.03-.61-.11-.21-.08-.4-.19-.56-.35-.16-.14-.29-.32-.4-.54-.11-.22-.16-.49-.16-.78v-3.86Zm1.04,3.86c0,.24,.08,.43,.21,.57,.13,.11,.29,.19,.48,.19s.35-.05,.48-.19c.13-.11,.21-.3,.21-.57v-3.86c0-.24-.08-.43-.21-.57-.13-.11-.29-.19-.48-.19s-.35,.05-.48,.19c-.13,.11-.21,.3-.21,.57v3.86Z"/>
      <path class="cls-2" d="M61.51,20.39v-7.31h.98l1.33,3.86h.03l1.3-3.86h1.01v7.31h-1.04v-4.45h-.03l-1.01,3.13h-.5l-1.01-3.13h-.03v4.45h-1.04Z"/>
      <path class="cls-2" d="M69.16,20.39v-7.31h1.54c.29,0,.53,.03,.74,.11,.21,.08,.4,.22,.58,.4,.19,.19,.29,.4,.37,.67,.08,.27,.11,.59,.11,1.05,0,.32-.03,.59-.05,.84-.03,.22-.11,.43-.24,.65-.13,.24-.32,.43-.56,.57-.24,.14-.56,.19-.93,.19h-.53v2.86h-1.04v-.03Zm1.01-6.32v2.48h.5c.21,0,.37-.03,.48-.08,.11-.05,.19-.13,.27-.27,.05-.11,.08-.22,.11-.38,0-.16,.03-.32,.03-.51v-.49c0-.16-.03-.3-.08-.4-.05-.11-.13-.22-.24-.27-.11-.05-.27-.08-.48-.08h-.58Z"/>
      <path class="cls-2" d="M74.45,20.39l1.59-7.31h.85l1.59,7.31h-1.04l-.29-1.57h-1.41l-.29,1.57h-1.01Zm2.55-2.56l-.5-2.64h-.03l-.5,2.64h1.04Z"/>
      <path class="cls-2" d="M81.01,20.39v-7.31h.98l1.57,4.4h.03v-4.4h1.04v7.31h-.98l-1.57-4.4h-.03v4.4h-1.04Z"/>
      <path class="cls-2" d="M88.53,20.39v-3.1l-1.41-4.21h1.09l.82,2.91h.03l.82-2.91h1.09l-1.41,4.21v3.1h-1.04Z"/>
      <path class="cls-2" d="M18.65,27.37c-.66-.05-1.33-.05-1.99-.05-2.95,0-6,.4-9.03,1.16-1.04,.27-2.05,.57-3.03,.89V7.5c1.65-.78,3.43-1.46,5.29-1.92,2.28-.59,4.57-.89,6.75-.89,.69,0,1.35,.03,1.99,.08v.08c.74,.22,1.51,.4,2.31,.54,.74,.13,1.51,.22,2.31,.27V.89c-1.94-.59-4.17-.89-6.59-.89s-5.18,.32-7.89,1.03C5.47,1.86,2.5,3.16,0,4.72v31.98c2.5-1.57,5.5-2.83,8.79-3.7,2.71-.7,5.39-1.03,7.89-1.03,.69,0,1.35,.03,1.99,.08v-4.7h-.03Z"/>
      <path class="cls-1" d="M33.18,4.72c-2.71,.7-5.39,1.03-7.89,1.03-.69,0-1.35-.03-1.99-.08-.8-.05-1.57-.16-2.31-.27-.8-.13-1.57-.32-2.31-.54V36.87c1.97,.57,4.22,.89,6.64,.89s5.18-.32,7.89-1.03c3.29-.84,6.27-2.13,8.79-3.7V1.05c-2.55,1.54-5.53,2.83-8.82,3.67Zm4.14,25.53c-1.65,.78-3.43,1.46-5.29,1.92-2.28,.59-4.57,.89-6.75,.89-.69,0-1.35-.03-1.99-.08V10.39c.66,.05,1.33,.05,1.99,.05,2.95,0,6-.4,9.03-1.16,1.04-.27,2.05-.57,3.03-.89V30.25h-.03Z"/>
      <path class="cls-1" d="M49.48,23.88v-1.4h-.5v-.3h1.33v.3h-.5v1.4h-.32Z"/>
      <path class="cls-1" d="M54.18,23.88h-.37l-.13-.38h-.66l-.13,.38h-.35l.64-1.7h.35l.66,1.7Zm-.64-.67l-.24-.62-.24,.62h.48Z"/>
      <path class="cls-1" d="M57.29,23.26v-.27h.72v.67c-.19,.16-.43,.27-.72,.27s-.48-.08-.64-.24c-.13-.16-.21-.38-.21-.65,0-.3,.08-.51,.24-.65,.16-.13,.35-.22,.58-.22,.4,0,.64,.16,.72,.49l-.35,.05c-.05-.19-.19-.27-.37-.27-.32,0-.48,.19-.48,.57,0,.19,.05,.32,.13,.43,.08,.11,.21,.16,.35,.16s.27-.05,.4-.14v-.22h-.37Z"/>
      <path class="cls-1" d="M62.5,23.88v-1.7h.35v1.4h.85v.3h-1.2Z"/>
      <path class="cls-1" d="M66.06,23.88v-1.7h.35v1.7h-.35Z"/>
      <path class="cls-1" d="M68.84,23.88v-1.7h.32l.69,1.13v-1.13h.32v1.7h-.35l-.66-1.11v1.11h-.32Z"/>
      <path class="cls-1" d="M72.7,23.88v-1.7h1.25v.3h-.9v.38h.85v.3h-.85v.46h.9v.3h-1.25v-.03Z"/>
      <path class="cls-1" d="M78.33,23.88v-1.7h.35v.67h.66v-.67h.35v1.7h-.35v-.73h-.66v.73h-.35Z"/>
      <path class="cls-1" d="M82.15,23.88v-1.7h1.25v.3h-.9v.38h.85v.3h-.85v.46h.93v.3h-1.28v-.03Z"/>
      <path class="cls-1" d="M85.87,23.88v-1.7h.72c.21,0,.37,.03,.5,.11,.11,.05,.16,.19,.16,.38,0,.27-.16,.43-.45,.46,.11,.05,.24,.19,.37,.4l.21,.32h-.43l-.37-.54c-.03-.05-.08-.11-.13-.13-.05-.03-.11-.03-.21-.03h-.08v.7h-.29v.03Zm.35-1h.24c.16,0,.29-.03,.35-.05,.05-.03,.08-.08,.08-.19,0-.08-.03-.13-.08-.16-.05-.03-.16-.05-.35-.05h-.27v.46h.03Z"/>
      <path class="cls-1" d="M89.7,23.88v-1.7h1.25v.3h-.9v.38h.85v.3h-.85v.46h.93v.3h-1.28v-.03Z"/>
    </g>
  </g>
</svg>
